TSM - Color & Exposure/Tone Curve - Natural-like.pp3
[Exposure]
Curve=4;0;0;0.06;0.03;0.125;0.08;0.22;0.195;0.3525;0.415;0.5475;0.66;0.8125;0.8875;1;1;

