TSM - Color & Exposure/Tone Curve - Bright-like.pp3
[Exposure]
Curve=4;0;0;0.06;0.02;0.13;0.07;0.23;0.19;0.355;0.415;0.53;0.6575;0.8;0.9;1;1;
